X: 41908
T: Wailing
R: reel
M: 4/4
K: Gmajor
|:B2e2 e2{fed}e2|G2B2 e2g2|(3fgf d2 {c}d2e2|f2g2 a2f2|
g2b2 b2{a}b2|d'2b2 a2g2|1 (3fgf d2 {c}ded2|A2d2 f2d2:|
[2 fga2 g2f2|g2e2 {d}e2f2|:g2b2 b2{a}b2|g2b2 d'2b2|
a2f2 f2{gfe}f2|a2c'2 bb az|g2e2 {d}efe2|{f}g2b2 a2g2|
[1 fga2 d'2a2|f2a2 d'2a2:|2 fga2 g2f2|g2e2 e2d2||

